docs/img/icon1/crm_comma_revers.svg

<svg width="184" height="240" viewBox="0 0 184 240" fill="none" xmlns="http://www.w3.org/2000/svg">
<path d="M177.785 6.0351L177.825 6.07865L177.869 6.11728C181.203 9.02064 183 14.0328 183 21.4527V45.289C183 52.6964 181.208 57.9466 177.826 61.2601C174.863 64.1631 169.717 65.7417 162.104 65.7417H94.8807C89.4108 65.7417 85.0633 67.3954 81.9928 70.8181C78.926 73.8374 77.4591 78.0919 77.4591 83.4271V92.3658V93.3658H78.4591H162.104C169.691 93.3658 174.819 95.1311 177.785 98.4008L177.825 98.4444L177.869 98.483C181.203 101.386 183 106.399 183 113.818V218.547C183 225.955 181.208 231.205 177.826 234.518C174.863 237.421 169.717 239 162.104 239H21.8955C14.331 239 8.95568 237.441 5.56689 234.517C2.58773 231.203 1 225.949 1 218.547V89.9821C1 59.9607 9.06028 37.8314 24.9999 23.3855L25.0007 23.3848C41.4041 8.48913 63.042 1 90.015 1H162.104C169.691 1 174.819 2.76532 177.785 6.0351Z" stroke="#F5F6FF" stroke-width="2"/>
</svg>

<svg width="184" height="240" fill="none" xmlns="http://www.w3.org/2000/svg"><path d="M177.785 6.035l.04.044.044.038C181.203 9.021 183 14.033 183 21.453v23.836c0 7.407-1.792 12.658-5.174 15.971-2.963 2.903-8.109 4.482-15.722 4.482H94.881c-5.47 0-9.818 1.653-12.888 5.076-3.067 3.02-4.534 7.274-4.534 12.61v9.938h84.645c7.587 0 12.715 1.765 15.681 5.035l.04.043.044.039c3.334 2.903 5.131 7.916 5.131 15.335v104.729c0 7.408-1.792 12.658-5.174 15.971-2.963 2.903-8.109 4.482-15.722 4.482H21.895c-7.564 0-12.94-1.559-16.328-4.483C2.587 231.203 1 225.949 1 218.547V89.982c0-30.021 8.06-52.15 24-66.596v-.001C41.405 8.489 63.043 1 90.016 1h72.089c7.587 0 12.715 1.765 15.681 5.035z" stroke="#F5F6FF" stroke-width="2"/></svg>
